assets/ai/ai-scirate-square.svg

<svg xmlns="http://www.w3.org/2000/svg" width="100%" height="100%" viewBox="-75.52 -43.52 599.04 599.04"><path d="M 48 32 C 21.5 32 0 53.5 0 80 L 0 432 C 0 458.5 21.5 480 48 480 L 400 480 C 426.5 480 448 458.5 448 432 L 448 80 C 448 53.5 426.5 32 400 32 L 48 32 z M 160.49805 133.08398 L 287.50195 133.08398 L 287.50195 140.55664 C 271.04324 141.16877 260.09384 143.63021 254.70312 147.91406 C 249.32591 152.22342 246.65625 160.73957 246.65625 173.46094 L 246.65625 338.38281 C 246.65625 351.07761 249.41739 359.71064 254.80664 364.16406 C 260.25059 368.68156 271.17605 371.11693 287.50391 371.46875 L 287.07422 378.91602 L 160.49805 378.91602 L 160.49805 371.46875 C 177.25535 371.11654 188.27053 368.85193 193.58398 364.64648 C 198.90941 360.47968 201.52734 351.70287 201.52734 338.38281 L 201.52734 173.46094 C 201.52734 160.73956 198.90941 152.22342 193.58398 147.91406 C 188.27053 143.63021 177.25535 141.16877 160.49805 140.55664 L 160.49805 133.08398 z M 83.595703 141.94922 C 101.00488 141.94922 113.47845 146.8345 120.95312 156.625 C 128.45331 166.39035 132.17773 183.20047 132.17773 207.09375 L 132.17773 242.17188 C 132.17773 267.84904 136.47308 285.41339 145.01562 294.85352 C 150.18505 300.56944 158.28479 304.56799 168.7793 307.30273 L 168.7793 320.21875 C 146.76071 316.91088 129.46966 310.02321 116.9043 299.47656 C 100.12039 285.41388 91.787109 264.88077 91.787109 237.91406 L 91.787109 194.37305 C 91.787109 176.66491 90.276733 165.31086 87.216797 160.34961 C 84.169989 155.41499 78.673886 152.9668 70.783203 152.9668 L 64 152.9668 L 64 143.5 C 66.82552 142.99177 69.83303 142.60156 73.0625 142.32812 C 76.291596 142.09331 79.781079 141.94922 83.595703 141.94922 z M 364.4043 141.94922 C 368.21892 141.94922 371.70842 142.09331 374.9375 142.32812 C 378.16698 142.60156 381.17447 142.99177 384 143.5 L 384 152.9668 L 377.2168 152.9668 C 369.32614 152.9668 363.83003 155.41499 360.7832 160.34961 C 357.72325 165.31086 356.21289 176.6649 356.21289 194.37305 L 356.21289 237.91406 C 356.21289 264.88076 347.8796 285.41388 331.0957 299.47656 C 318.53037 310.02321 301.23929 316.91087 279.2207 320.21875 L 279.2207 307.30273 C 289.71521 304.56799 297.81497 300.56944 302.98438 294.85352 C 311.52693 285.41338 315.82227 267.84904 315.82227 242.17188 L 315.82227 207.09375 C 315.82227 183.20047 319.54665 166.39035 327.04688 156.625 C 334.52152 146.83451 346.99512 141.94922 364.4043 141.94922 z"/></svg>

<svg xmlns="http://www.w3.org/2000/svg" width="100%" height="100%" viewBox="-75.52 -43.52 599.04 599.04"><path d="M48 32C21.5 32 0 53.5 0 80v352c0 26.5 21.5 48 48 48h352c26.5 0 48-21.5 48-48V80c0-26.5-21.5-48-48-48H48zm112.498 101.084h127.004v7.473c-16.459.612-27.408 3.073-32.799 7.357-5.377 4.31-8.047 12.826-8.047 25.547v164.922c0 12.695 2.761 21.328 8.15 25.781 5.445 4.518 16.37 6.953 32.698 7.305l-.43 7.447H160.498v-7.447c16.757-.352 27.773-2.617 33.086-6.823 5.325-4.166 7.943-12.943 7.943-26.263V173.46c0-12.721-2.618-21.238-7.943-25.547-5.313-4.284-16.329-6.745-33.086-7.357v-7.473zm-76.902 8.865c17.409 0 29.882 4.885 37.357 14.676 7.5 9.765 11.225 26.575 11.225 50.469v35.078c0 25.677 4.295 43.241 12.838 52.682 5.169 5.715 13.269 9.714 23.763 12.449v12.916c-22.018-3.308-39.31-10.196-51.875-20.742-16.784-14.063-25.117-34.596-25.117-61.563v-43.54c0-17.71-1.51-29.063-4.57-34.024-3.047-4.935-8.543-7.383-16.434-7.383H64V143.5a97.745 97.745 0 019.063-1.172 144.62 144.62 0 0110.533-.379zm280.808 0c3.815 0 7.304.144 10.534.38 3.229.273 6.236.663 9.062 1.171v9.467h-6.783c-7.89 0-13.387 2.448-16.434 7.383-3.06 4.96-4.57 16.315-4.57 34.023v43.541c0 26.967-8.333 47.5-25.117 61.563-12.566 10.546-29.857 17.434-51.875 20.742v-12.916c10.494-2.735 18.594-6.734 23.763-12.45 8.543-9.44 12.838-27.004 12.838-52.681v-35.078c0-23.894 3.725-40.704 11.225-50.469 7.475-9.79 19.948-14.676 37.357-14.676z"/></svg>
